X: 5
T: The Reel With The Birl
R: reel
M: 4/4
L: 1/8
K: Dmaj
E2BE dEBE | E3B AFDF | E2BE dEBE |1 dcdB AFDF :|2 dcdB A4 ||BABd e2de | fddc d2ef | g4 g4 | faab afed | dbb2 bafe | faab afed | B3B BAFA | dcdB AFDF ||


Tune 189	Setting 12839

